X: 5
T: The Mouth Of The Tobique
R: reel
M: 4/4
L: 1/8
K: Gmaj
|:(3DEF|GFGA Bded|BdBG DGBG|ABAG FDEF|GABc d2(3DEF|
GFGA Bded|BdBG DGBG|ABAG FDEF|GBAFG2:|
|:ef|gfga gdBg|fdAd f2gf|ecAG FDEF|GABc d2ef|
gfga gdBg|fdAd f2gf|ecAG FDEF|GBAFG2:|
|:(3DEF|G2 BG GcGG|BGGc GGBG|FGAB cDEF|GABc d2(3DEF|
G2BG GcGG|BGGc GGBG|FGAB cDEF|GBAFG2:|